X:1
T:Third Mode Melody, CMD
T:Third Mode Melody, CMD
T:Thomas Tallis (1505-1585)
T:Public Domain Courtesy of the Cyber Hymnal™
C:Thomas Tallis (1505-1585)
Z:Public Domain
Z:Courtesy of the Cyber Hymnal™
%%score ( 1 2 ) ( 3 4 )
L:1/8
M:none
K:C
V:1 treble 
V:2 treble 
V:3 bass 
V:4 bass 
V:1
 E2 [EG]2 [EG]2 | [EG]6 [EG]2 [CA]2 [DA]2 | [B,B]6 [EB]2 | [EB]6 [^DB]2 [EB]2 [Ec]2 | %4
 [EB]6 E2 [EB]2 [EB]2 | [EB]6 [EG]2 [EA]2 [DA]2 | [B,B]6 [EB]2 | [EB]6 [EB]2 [Ec]2 [CA]2 | %8
 [EB]6 [EB]2 | B3 z c [Fd]2 | [Ee]4 [Gd]2 | [Ec]2 [Ec]2 [EB]6 [EG]2 | [EA]6 E2 [EF]2 [DF]2 | %13
 [CE]6 [CA]2 | (c3 B) [CA]2 | [CG]4 [CE]2 | (A3 G) [CF]2 x | [CE]4 [CG]2 || %18
[M:4/2] [CF]2 D2 [CE]2 [CE]2 | [B,E]6 |] %20
V:2
 E2 x4 | x12 | x8 | x12 | x6 E2 x4 | x12 | x8 | x12 | x8 | E2 G2 x3 | x6 | x12 | x6 E2 x4 | x8 | %14
 C4 x2 | x6 | C4 x3 | x6 ||[M:4/2] x2 D2 x4 | x6 |] %20
V:3
 [E,G,]2 [E,B,]2 [E,B,]2 | [E,B,]6 [G,B,]2 [F,A,]2 [F,A,]2 | [E,^G,]6 [E,G,]2 | %3
 [E,^G,]6 [B,,^F,]2 [E,G,]2 [A,,A,]2 | [E,G,]6 [E,G,]2 [E,G,]2 [E,G,]2 | %5
 [E,G,]6 [G,B,]2 [F,A,]2 [F,A,]2 | [E,^G,]6 [E,G,]2 | [E,^G,]6 [E,G,]2 [A,,A,]2 [A,,A,]2 | %8
 [E,^G,]6 [E,=G,]2 | (G,3 A,) [D,B,]2 x | [C,C]4 [G,,B,]2 | [A,,A,]2 [A,,A,]2 [E,G,]6 [E,B,]2 | %12
 [A,,C]6 [C,A,]2 [D,A,]2 [D,A,]2 | [A,,A,]6 [A,,E,]2 | (A,3 G,) [A,,F,]2 | [C,E,]4 [C,G,]2 | %16
 C3 z B, A,2 | [C,G,]4 [C,E,]2 ||[M:4/2] [F,,A,]2 [F,,A,]2 [A,,A,]2 (E,^F,) | [E,^G,]6 |] %20
V:4
 x6 | x12 | x8 | x12 | x12 | x12 | x8 | x12 | x8 | E,4 x3 | x6 | x12 | x12 | x8 | A,,4 x2 | x6 | %16
 (A,,2 A,,4) x | x6 ||[M:4/2] x6 A,,2 | x6 |] %20

